!!!COM: Lassus, Rudolphus
!!!CDT: 1563-1625
!!!OPR: Geistliche Psalmen mit dreyen Stimmen
!!!ONM: 12
!!!OTL@@LA: Usquequo Domine
!!!OTL-incipit@@DE: Wie lang O Herr vergistu mein
**kern	**text	**kern	**text	**kern	**text
*staff3	*staff3	*staff2	*staff2	*staff1	*staff1
*Ivox	*	*Ivox	*	*Ivox	*
*I"Bassus	*	*I"Tenor	*	*I"Cantus	*
*I'B	*	*I'T	*	*I'C	*
*clefC4	*	*clefC3	*	*clefC1	*
*k[b-]	*	*k[b-]	*	*k[b-]	*
*g:dor	*	*g:dor	*	*g:dor	*
*M2/1	*	*M2/1	*	*M2/1	*
*met(C|)	*	*met(C|)	*	*met(C|)	*
*MM180	*	*MM180	*	*MM180	*
=1	=1	=1	=1	=1	=1
*xywh-#138:326,71,2747,520	*	*xywh-#82:330,69,2745,514	*	*xywh-#22:310,60,2702,493	*
00r	.	1c	Wie	00r	.
.	.	2c	lang	.	.
.	.	2c	O	.	.
=2	=2	=2	=2	=2	=2
.	.	2B-	Herr	.	.
.	.	2G	ver-	.	.
.	.	2c	-gis-	.	.
.	.	2A	-tu	.	.
=3	=3	=3	=3	=3	=3
00r	.	2G	mein/	1g	Wie
*	*	*	*ij	*	*
.	.	2c	wie	.	.
.	.	2B	lang	2g	lang
.	.	2c	O	2g	O
=4	=4	=4	=4	=4	=4
.	.	2d	Herr	2f	Herr
.	.	2.B-	ver-	2d	ver-
.	.	.	.	2g	gis-
.	.	4G	.	.	.
.	.	1c	-gis-	2e	-tu
=5	=5	=5	=5	=5	=5
!LO:TX:a:i:t=c.f.	!	!	!	!	!
1G	Wie	.	.	2d	mein
*	*	*	*	*	*ij
.	.	4B-	.	2d	wie
.	.	4A	.	.	.
*	*	*xywh-#82:327,551,2752,357	*	*	*
2G	lang	2.B-	.	2d	lang
2G	O	.	.	2b-	O
.	.	8A	.	.	.
.	.	8G	.	.	.
=6	=6	=6	=6	=6	=6
2F	Herr	2c	.	2a	Herr
!! cadence start
2D	ver-	1d	.	2f	ver-
2G	-gis-	.	.	2b-	-gis-
2E	-tu	2c#i	-tu	2g	-tu
=7	=7	=7	=7	=7	=7
2D	mein/	2d	mein/	1f	mein
!! cadence end; ultima=d
*	*	*	*Xij	*	*Xij
2B-	wirt	2d	wird	.	.
2B-	diß	2.d	diß	2r	.
2B-	denn	.	.	2b-	wirt
.	.	4c	.	.	.
=8	=8	=8	=8	=8	=8
*	*	*	*	*xywh-#22:303,538,2727,392	*
2G	jm-	2B-	.	2b-	diß
2B-	-mer	2d	den	2b-	denn
4c	we-	2e-	jm-	3.g	jm-
8B-	.	.	.	.	.
8A	.	.	.	.	.
4G	.	2e-	-mer	6a	.
.	.	.	.	3b-	.
4A	.	.	.	.	.
=9	=9	=9	=9	=9	=9
*xywh-#138:321,561,2765,445	*	*	*	*	*
*lig	*	*	*	*	*
1B-	.	4d	we-	4f	-mer
.	.	4B-	.	4d	.
.	.	2.d	.	2.f	.
!! cadence start
1A	.	.	.	.	.
*Xlig	*	*	*	*	*
.	.	4c	.	4e	.
.	.	2.c	.	4e	.
.	.	.	.	8d	.
.	.	.	.	8c	.
=10	=10	=10	=10	=10	=10
2G	-ren/	.	.	1d	.
.	.	8B	.	.	.
.	.	8A	.	.	.
2G	wie	2B	.	.	.
2F	lang	2c	-ren/	2a	we-
!! cadence end; ultima=c
2E	wilt	4r	.	2g	-ren/
.	.	4c	wie	.	.
=11	=11	=11	=11	=11	=11
*	*	*xywh-#82:325,890,2764,371	*	*	*
4F	du	2c	lang	0r	.
4G	.	.	.	.	.
4A	.	2c	wilt	.	.
4F	.	.	.	.	.
2G	.	2B-	du	.	.
2B-	das	2G	das	.	.
=12	=12	=12	=12	=12	=12
2A	ant-	2c	ant-	1r	.
2F	-litz	2A	-litz	.	.
1E	dein/	2G	dein/	1g	wie
*	*	*	*ij	*	*
.	.	2c	wie	.	.
=13	=13	=13	=13	=13	=13
0r	.	2B	lang	2g	lang
.	.	2c	wilt	2g	wilt
.	.	2d	du	2f	du
.	.	2.B-y	das	2d	das
=14	=14	=14	=14	=14	=14
1r	.	.	.	2g	ant-
.	.	4G	.	.	.
.	.	1c	ant-	2e	-litz
*	*ij	*	*	*	*
1G	wie	.	.	2d	dein/
*	*	*	*	*	*ij
.	.	4B-	.	2d	wie
.	.	4A	.	.	.
=15	=15	=15	=15	=15	=15
*	*	*	*	*xywh-#22:297,914,2711,359	*
2G	lang	2.B-	.	2d	lang
2G	wilt	.	.	2b-	wilt
.	.	8A	.	.	.
.	.	8G	.	.	.
2F	du	2c	.	2a	du
!! cadence start
2D	das	1d	.	2f	das
=16	=16	=16	=16	=16	=16
2G	ant-	.	.	2b-	ant-
2E	-litz	2c#i	-litz	2g	-litz
*xywh-#138:319,972,2770,455	*	*	*	*	*
2D	dein/	2.d	dein/	1f	dein/
!! cadence end; ultima=d
*	*Xij	*	*Xij	*	*Xij
2B-	von	.	.	.	.
.	.	4c	.	.	.
=17	=17	=17	=17	=17	=17
*	*	*xywh-#82:320,1224,2757,371	*	*	*
2G	mir	2B-	.	2r	.
2B-	hin	2d	von	2b-	von
4c	keh-	2e-	mir	2g	mir
8B-	.	.	.	.	.
8A	.	.	.	.	.
4G	.	2e-	hin	2b-	hin
4A	.	.	.	.	.
=18	=18	=18	=18	=18	=18
*lig	*	*	*	*	*
1B-	.	4d	ke-	4f	ke-
.	.	4B-	.	4d	.
.	.	2.d	.	2.f	.
!! cadence start
1A	.	.	.	.	.
*Xlig	*	*	*	*	*
.	.	4c	.	4e	.
.	.	2.c	.	4e	.
.	.	.	.	8d	.
.	.	.	.	8c	.
=19	=19	=19	=19	=19	=19
1G	-ren/	.	.	1d	.
.	.	8Bni	.	.	.
.	.	8A	.	.	.
.	.	2Bni	.	.	.
1r	.	2c	-ren/	2e	-ren/
!! cadence end; ultima=c
.	.	4r	.	2e	wie
.	.	4c	Wie	.	.
=20	=20	=20	=20	=20	=20
1r	.	2c	lang	2e	lang
.	.	2A	sol	2c	sol
*	*	*	*	*xywh-#22:297,1249,2702,356	*
2r	.	2B-	mein	2d	mein
*	*	*lig	*	*	*
2A	wie	1c	seel	2e	seel
=21	=21	=21	=21	=21	=21
!! cadence start a
2A	lang	.	.	2.f	küm-
2F	soll	2.d	.	.	.
*	*	*Xlig	*	*	*
.	.	.	.	4f	-mer-
2G	mein	.	.	1e	-lich/
.	.	8c#i	.	.	.
.	.	8Bni	.	.	.
2A	seel	2c#i	.	.	.
=22	=22	=22	=22	=22	=22
!! cadence start b
2B-	küm-	2d	kü-	2r	.
!! cadence end a; ultima=d
2G	-mer-	2B-	-m̃er-	2d	mit
*	*	*xywh-#82:311,1566,2771,374	*	*	*
1D	-lich/	2A	-lich	2f	sol-
!! cadence end b; ultima=d
.	.	2A	mit	2f	-chen
=23	=23	=23	=23	=23	=23
0r	.	2B-	sol-	1f	schwe-
.	.	2B-	-chen	.	.
.	.	2B-	schwe-	2g	-ren
.	.	2c	-ren	2.a	za-
=24	=24	=24	=24	=24	=24
2r	.	2.d	za-	.	.
.	.	.	.	4g	.
2D	mit	.	.	4f	.
.	.	8c	.	8e	.
.	.	8B-	.	8d	.
*xywh-#138:319,1394,2777,455	*	*	*	*	*
!! cadence start
*	*	*	*	*lig	*
2F	sol-	4A	.	1c	.
.	.	4B-	.	.	.
2F	-chem	2.c	.	.	.
=25	=25	=25	=25	=25	=25
2F	schwe-	.	.	2.d	.
*	*	*	*	*Xlig	*
.	.	8Bni	.	.	.
.	.	8A	.	.	.
2G	-ren	2Bni	.	.	.
.	.	.	.	4e	.
1A	za-	2c	-gen/	2f	.
!! cadence end; ultima=c
.	.	2c	in	2e	-gen/
=26	=26	=26	=26	=26	=26
2G	-gen/	1.d	mir	2r	.
2F	in	.	.	2a	in
2G	mir	.	.	2b-	mir
2A	rath-	2f	rath-	2a	rath-
=27	=27	=27	=27	=27	=27
*	*	*	*	*xywh-#22:308,1586,2724,378	*
1B-i	-schla-	1d	-schla-	2g	-schla-
.	.	.	.	2f	-gen/
1A	-gen/	1c	-gen/	2r	.
.	.	.	.	2a	sol
=28	=28	=28	=28	=28	=28
1r	.	2r	.	2g	ich
.	.	2d	sol	2f	täg-
2r	.	2c	ich	2e	-lich
2d	soll	2B-	deñ	2.f	eng-
=29	=29	=29	=29	=29	=29
2c	ich	2A	täg-	.	.
.	.	.	.	4c	.
2B-	dann	2G	-lich	4d	.
.	.	.	.	4e	.
*	*	*xywh-#82:309,1900,2778,399	*	*	*
2A	täg-	2c	eng-	4f	.
.	.	.	.	4e	.
2G	-lich	2B-	-sten	2g	.
=30	=30	=30	=30	=30	=30
1F	eng-	4c	mich/	4a	-sten
.	.	4B-	.	4g	.
.	.	4A	.	4f	.
.	.	4c	.	4e	.
!! cadence start
2.G	-sten	2.B-	.	2d	.
.	.	.	.	2.g	mich/
8F	.	8A	.	.	.
8E	.	8G	.	.	.
=31	=31	=31	=31	=31	=31
1D	.	2A	.	.	.
.	.	.	.	8f#i	.
.	.	.	.	8e	.
.	.	2A	mit	2f#i	.
*xywh-#138:317,1812,2770,455	*	*	*	*	*
*	*	*	*	*lig	*
2G	mich/	2B	bit-	1g	.
!! cadence end; ultima=g
2F	mit	2c	-ter-	.	.
=32	=32	=32	=32	=32	=32
2F	bit-	1c	-li-	1a	.
*	*	*	*	*Xlig	*
2F	-ter-	.	.	.	.
*	*	*	*	*xywh-#22:303,1934,2722,422	*
2F	-li-	2d	-chen	1r	.
2G	-chen	1e	schmer-	.	.
=33	=33	=33	=33	=33	=33
1A	schmer-	.	.	2r	.
.	.	4d	.	2a	mit
.	.	4c	.	.	.
2G	-tzen/	1d	.	2b-	bit-
*	*ij	*	*	*	*
2G	mit	.	.	2b-	-ter-
=34	=34	=34	=34	=34	=34
2G	bit-	2d	-tzen/	2b-	-li-
*	*	*	*ij	*	*
2A	-ter-	2f	mit	2cc	-chen
2B-	-li-	2f	bit-	1dd	schmer-
1G	-chen	2B-	-ter-	.	.
=35	=35	=35	=35	=35	=35
.	.	2d	-li-	2b-	-tzen/
2e-i	schmer-	2g	-chen	2.b-	in
2d	-tzen/	2f	schmer-	.	.
*	*Xij	*	*	*	*
.	.	.	.	4a	.
2B-	in	4f	-tzen/	2dd	.
*	*	*	*Xij	*	*
.	.	4d	in	.	.
=36	=36	=36	=36	=36	=36
!! cadence start
2A	mei-	4f	mei-	2cc	mei-
.	.	4e	-nẽ	.	.
2G	-nem	2.g	her-	2b-	-nem
1d	her-	.	.	1a	her-
.	.	8f#i	.	.	.
.	.	8e	.	.	.
.	.	2f#i	.	.	.
=37	=37	=37	=37	=37	=37
0Gll	-tzen.	0gl	-tzen.	0gll	-tzen.
!! cadence end; ultima=g
==	==	==	==	==	==
*-	*-	*-	*-	*-	*-
!!!RDF**kern: l = terminal long
!!!RDF**kern: i = editorial accidental
!!!AGN: Psalm; Tricinium
!!!LIB: Ulenberg, Caspar
!!!LIB-CDT: 1548/12/24-1617/02/16
!!!YOR: https://mdz-nbn-resolving.de/details:bsb00075346
!!!YOO: München, Bayerische Staatsbibliothek
!!!URL-scan: https://www.digitale-sammlungen.de/de/view/bsb00075346?page=22 Cantus
!!!URL-scan: https://www.digitale-sammlungen.de/de/view/bsb00075346?page=82 Tenor
!!!URL-scan: https://www.digitale-sammlungen.de/de/view/bsb00075346?page=138 Bassus
!!!IIIF: https://api.digitale-sammlungen.de/iiif/presentation/v2/bsb00075346/manifest
!!!EED: Wolfgang Drescher
!!!END: 2023/02/27
!!!ENC: Wolfgang Drescher
!!!EEV: 2023/03/02
!!!title: @{ONM}. @{OTL} / <i>@{OTL-incipit@@DE}</i>